X: 1
T: Finlay's Delight
M: 4/4
L: 1/8
R: reel
K: Gmaj
[|GGdG eGdG|GBdB AGEF|GGGA BABd|eedB AGEF|
GGdG eGdG|GBdB AGEF|GGGA BABd|eedB AAef|
|gggb aaab|gabg agef|gggb aaab|gedB A3 g|
gabg gabg|gabg aaga|bgab gede|gedB AGEF|]
